src/site/favicon.svg

<svg id="emoji" viewBox="0 0 72 72" xmlns="http://www.w3.org/2000/svg">
  <g id="color">
    <path fill="#5c9e31" d="m36.2208,29.3157h0c-2.3045-4.2879-8.34-5.5242-13.4806-2.7614s-6.7397,8.181-4.4352,12.4689l1.1937-1.279c1.8116-1.9229,2.6256-2.3028,4.8485-3.7454.0001,0,6.0943-4.5336,11.8736-4.6831Z"/>
    <path fill="#b1cc33" d="m37.2849,28.2487c-2.3394-.8811-4.95-.1607-6.9233,1.6466-1.0336.9466-1.8924,2.1915-2.4457,3.6606-1.6096,4.2736-.0246,8.8265,3.5401,10.1691h0c.2136-5.5917,2.3006-11.1331,5.8289-15.4763h0Z"/>
    <path fill="#5c9e31" d="m54.8533,19.9083l.1467-1.4703c-2.305-3.7677-6.6102-3.8727-11.4359-2.859-3.4455,1.3417-5.903,3.9986-6.792,6.9192-.5142,1.6891-.5038,3.4665.1435,5.1286,0,0,6.869-8.5078,17.9377-7.7185Z"/>
    <path fill="#b1cc33" d="m61.7027,34.872c1.4992-5.6939-2.8192-11.7667-9.6454-13.564-1.0578-.2785-2.1138-.438-3.1487-.4875-5.6432-.2699-10.6589,2.7314-11.9257,7.5429h0c8.6314-.5583,17.4825,1.7722,24.7198,6.5086h0Z"/>
    <path fill="#5c9e31" d="m12.2789,23.7435s12.538-.9481,23.3468,2.6232l.7806.4425s2.2411-6.8492-3.3024-9.7317c-6.6385-3.8667-16.394-4.5176-20.825,6.666Z"/>
  </g>
  <g id="line">
    <path fill="none" stroke="#000" stroke-linecap="round" stroke-linejoin="round" stroke-width="2" d="m39.9771,32.4424c2.4273,6.8664,4.2771,16.8297,2.9406,30.3218"/>
    <path fill="none" stroke="#000" stroke-linecap="round" stroke-linejoin="round" stroke-width="2" d="m36.2208,28.3157h0c-2.3045-4.2879-8.34-5.5242-13.4806-2.7614s-7.4397,8.4785-5.1352,12.7664h0c1.8116-1.9229,3.8637-3.6243,6.0866-5.0669"/>
    <path fill="none" stroke="#000" stroke-linecap="round" stroke-linejoin="round" stroke-width="2" d="m56.4308,19.0312h0c-2.0648-4.4084-8.0229-5.9754-13.308-3.5-3.3485,1.5683-5.6233,4.3831-6.3158,7.3565-.4005,1.7196-.2716,3.4923.485,5.1077"/>
    <path fill="none" stroke="#000" stroke-linecap="round" stroke-linejoin="round" stroke-width="2" d="m37.2849,28.2487c-2.3394-.8811-4.95-.1607-6.9233,1.6466-1.0336.9466-1.8924,2.1915-2.4457,3.6606-1.6096,4.2736-.0246,8.8265,3.5401,10.1691h0c.2136-5.5917,2.3006-11.1331,5.8289-15.4763h0Z"/>
    <path fill="none" stroke="#000" stroke-linecap="round" stroke-linejoin="round" stroke-width="2" d="m61.7027,34.872c1.4992-5.6939-2.8192-11.7667-9.6454-13.564-1.0578-.2785-2.1138-.438-3.1487-.4875-5.6432-.2699-10.6589,2.7314-11.9257,7.5429h0c8.6314-.5583,17.4825,1.7722,24.7198,6.5086h0Z"/>
    <path fill="none" stroke="#000" stroke-linecap="round" stroke-linejoin="round" stroke-width="2" d="m34.1871,19.0106c-.088-.085-.1776-.1693-.2689-.2527-1.7757-1.624-4.1607-2.9465-6.8817-3.6185-6.8529-1.6926-13.5043,1.9432-14.7576,7.6962h0c2.2915-.2474,4.6074-.2905,6.9127-.137"/>
    <line x1="56.4308" x2="55" y1="19.0312" y2="18.9064" fill="none" stroke="#000" stroke-linecap="round" stroke-linejoin="round" stroke-width="2"/>
  </g>
</svg>

<?xml version="1.0" encoding="UTF-8" standalone="no"?>
<!DOCTYPE svg PUBLIC "-//W3C//DTD SVG 1.1//EN" "http://www.w3.org/Graphics/SVG/1.1/DTD/svg11.dtd">
<svg width="100%" height="100%" viewBox="0 0 72 72" version="1.1" xmlns="http://www.w3.org/2000/svg" xmlns:xlink="http://www.w3.org/1999/xlink" xml:space="preserve" xmlns:serif="http://www.serif.com/" style="fill-rule:evenodd;clip-rule:evenodd;stroke-linecap:round;stroke-linejoin:round;">
    <rect x="0" y="0" width="72" height="72" style="fill:rgb(255,244,208);"/>
    <g id="color">
        <path d="M36.221,29.316C33.916,25.028 27.881,23.792 22.74,26.554C17.6,29.317 16,34.735 18.305,39.023L19.499,37.744C21.31,35.821 22.124,35.441 24.347,33.999C24.347,33.999 30.441,29.465 36.221,29.316Z" style="fill:rgb(92,158,49);fill-rule:nonzero;"/>
        <path d="M37.285,28.249C34.946,27.368 32.335,28.088 30.362,29.895C29.328,30.842 28.469,32.087 27.916,33.556C26.306,37.83 27.891,42.382 31.456,43.725C31.67,38.133 33.757,32.592 37.285,28.249Z" style="fill:rgb(177,204,51);fill-rule:nonzero;"/>
        <path d="M54.853,19.908L55,18.438C52.695,14.67 48.39,14.565 43.564,15.579C40.119,16.921 37.661,19.578 36.772,22.498C36.258,24.187 36.268,25.965 36.916,27.627C36.916,27.627 43.785,19.119 54.853,19.908Z" style="fill:rgb(92,158,49);fill-rule:nonzero;"/>
        <path d="M61.703,34.872C63.202,29.178 58.884,23.105 52.057,21.308C51,21.03 49.944,20.87 48.909,20.821C43.265,20.551 38.25,23.552 36.983,28.363C45.614,27.805 54.465,30.136 61.703,34.872Z" style="fill:rgb(177,204,51);fill-rule:nonzero;"/>
        <path d="M12.279,23.744C12.279,23.744 24.817,22.795 35.626,26.367L36.406,26.809C36.406,26.809 38.647,19.96 33.104,17.078C26.465,13.211 16.71,12.56 12.279,23.744Z" style="fill:rgb(92,158,49);fill-rule:nonzero;"/>
    </g>
    <g id="line">
        <path d="M39.977,32.442C42.404,39.309 44.254,49.272 42.918,62.764" style="fill:none;fill-rule:nonzero;stroke:black;stroke-width:2px;"/>
        <path d="M36.221,28.316C33.916,24.028 27.881,22.792 22.74,25.554C17.6,28.317 15.3,34.033 17.605,38.321C19.417,36.398 21.469,34.696 23.692,33.254" style="fill:none;fill-rule:nonzero;stroke:black;stroke-width:2px;"/>
        <path d="M56.431,19.031C54.366,14.623 48.408,13.056 43.123,15.531C39.774,17.1 37.5,19.914 36.807,22.888C36.406,24.607 36.535,26.38 37.292,27.995" style="fill:none;fill-rule:nonzero;stroke:black;stroke-width:2px;"/>
        <path d="M37.285,28.249C34.946,27.368 32.335,28.088 30.362,29.895C29.328,30.842 28.469,32.087 27.916,33.556C26.306,37.83 27.891,42.382 31.456,43.725C31.67,38.133 33.757,32.592 37.285,28.249Z" style="fill:none;fill-rule:nonzero;stroke:black;stroke-width:2px;"/>
        <path d="M61.703,34.872C63.202,29.178 58.884,23.105 52.057,21.308C51,21.03 49.944,20.87 48.909,20.821C43.265,20.551 38.25,23.552 36.983,28.363C45.614,27.805 54.465,30.136 61.703,34.872Z" style="fill:none;fill-rule:nonzero;stroke:black;stroke-width:2px;"/>
        <path d="M34.187,19.011C34.099,18.926 34.01,18.841 33.918,18.758C32.142,17.134 29.758,15.811 27.036,15.139C20.184,13.447 13.532,17.083 12.279,22.836C14.57,22.588 16.886,22.545 19.192,22.699" style="fill:none;fill-rule:nonzero;stroke:black;stroke-width:2px;"/>
        <path d="M56.431,19.031L55,18.906" style="fill:none;fill-rule:nonzero;stroke:black;stroke-width:2px;"/>
    </g>
</svg>
